dist/img/account_balance.svg

<svg width="41" height="41" viewBox="0 0 41 41" fill="none" xmlns="http://www.w3.org/2000/svg">
<path d="M27.8457 23.2333C28.5575 23.2333 29.191 22.9557 29.7463 22.4005C30.3015 21.8453 30.5791 21.1976 30.5791 20.4573C30.5791 19.7455 30.3015 19.1191 29.7463 18.5781C29.191 18.0371 28.5575 17.7667 27.8457 17.7667C27.1339 17.7667 26.5004 18.0371 25.9452 18.5781C25.39 19.1191 25.1124 19.7455 25.1124 20.4573C25.1124 21.1976 25.39 21.8453 25.9452 22.4005C26.5004 22.9557 27.1339 23.2333 27.8457 23.2333ZM7.77282 30.9635V33.2271V7.77291V30.9635ZM7.77282 36.1312C7.03254 36.1312 6.36344 35.8394 5.76553 35.2557C5.16761 34.672 4.86865 33.9958 4.86865 33.2271V7.77291C4.86865 7.00416 5.16761 6.32795 5.76553 5.74426C6.36344 5.16058 7.03254 4.86874 7.77282 4.86874H33.227C34.0242 4.86874 34.7075 5.16058 35.277 5.74426C35.8464 6.32795 36.1312 7.00416 36.1312 7.77291V13.4104H33.227V7.77291H7.77282V33.2271H33.227V27.6323H36.1312V33.2271C36.1312 33.9958 35.8464 34.672 35.277 35.2557C34.7075 35.8394 34.0242 36.1312 33.227 36.1312H7.77282ZM22.977 28.4865C22.0374 28.4865 21.2758 28.2017 20.6921 27.6323C20.1084 27.0628 19.8166 26.3083 19.8166 25.3687V15.674C19.8166 14.7344 20.1084 13.9799 20.6921 13.4104C21.2758 12.841 22.0374 12.5562 22.977 12.5562H34.7645C35.7325 12.5562 36.5013 12.841 37.0707 13.4104C37.6402 13.9799 37.9249 14.7344 37.9249 15.674V25.3687C37.9249 26.3083 37.6402 27.0628 37.0707 27.6323C36.5013 28.2017 35.7325 28.4865 34.7645 28.4865H22.977ZM35.3624 25.924V15.1187H22.3791V25.924H35.3624Z" fill="#00E0FF"/>
</svg>

<svg width="41" height="41" fill="none" xmlns="http://www.w3.org/2000/svg"><path d="M27.846 23.233c.712 0 1.345-.277 1.9-.832.556-.556.833-1.203.833-1.944 0-.712-.277-1.338-.833-1.879-.555-.54-1.188-.811-1.9-.811s-1.346.27-1.9.811c-.556.541-.834 1.168-.834 1.88 0 .74.278 1.387.833 1.943.555.555 1.189.832 1.9.832Zm-20.073 7.73v2.264V7.773v23.19Zm0 5.168c-.74 0-1.41-.292-2.007-.875-.598-.584-.897-1.26-.897-2.029V7.773c0-.769.299-1.445.897-2.029.597-.583 1.267-.875 2.007-.875h25.454c.797 0 1.48.292 2.05.875.57.584.854 1.26.854 2.029v5.637h-2.904V7.773H7.773v25.454h25.454v-5.595h2.904v5.595c0 .769-.285 1.445-.854 2.029-.57.583-1.253.875-2.05.875H7.773Zm15.204-7.645c-.94 0-1.701-.284-2.285-.854-.584-.57-.875-1.324-.875-2.263v-9.695c0-.94.291-1.694.875-2.264.584-.569 1.345-.854 2.285-.854h11.787c.968 0 1.737.285 2.307.854.57.57.854 1.324.854 2.264v9.695c0 .94-.285 1.694-.854 2.263-.57.57-1.338.854-2.306.854H22.976Zm12.385-2.562V15.119H22.38v10.805h12.983Z" fill="#00E0FF"/></svg>
